X:1
T:Te Laudant Omnia, 77.77.77
T:Te Laudant Omnia, 77.77.77
T:James Frederick Swift (1847-1931)
T:Public Domain Courtesy of the Cyber Hymnal™
C:James Frederick Swift (1847-1931)
Z:Public Domain
Z:Courtesy of the Cyber Hymnal™
%%score ( 1 2 ) ( 3 4 )
L:1/8
Q:1/4=115
M:4/4
K:A
V:1 treble 
V:2 treble 
V:3 bass 
V:4 bass 
V:1
 [Ec]2 [Ee]2 [FA]2 [FB]2 | [EA]2 [DG]2 [CA]4 | [DF]2 E2 [EG]2 [EA]2 | [Ed]2 [Ec]2 [EB]4 | %4
 [Ec]2 [Ee]2 [FA]2 [FB]2 | [EA]2 [DG]2 [CA]4 | [EB]3 [EB] [Ec]2 [EA]2 | [EG]2 [^DF]2 E4 | %8
 E2 (AG) [DF]2 [DB]2 | [EG]2 (cB) [FA]4 | [Ed]2 [Ee]2 [Ec]2 [FB]2 | [EA]4 [DG]4 | [CA]8 |] x8 |] %14
V:2
 x8 | x8 | x2 E2 x4 | x8 | x8 | x8 | x8 | x4 E4 | E2 C2 x4 | x2 ^E2 x4 | x8 | x8 | x8 |] x8 |] %14
V:3
 A,2 [E,G,]2 [F,C]2 [D,D]2 | [F,C]2 [F,B,]2 [A,,A,]4 | [D,A,]2 [C,A,]2 [B,,D]2 [A,,C]2 | %3
 [G,,B,]2 [A,,A,]2 [E,G,]4 | A,2 [G,B,]2 [F,C]2 [D,D]2 | x8 | [E,C]2 [^E,B,]2 [F,A,]4 | %7
 [G,E]3 [G,D] [A,C]2 [A,C]2 | B,2 (B,A,) [E,G,]4 | [C,A,]2 [A,,A,]2 [D,A,]2 [B,,B,]2 | %10
 [E,B,]2 [C,C]2 [F,C]4 | [G,B,]2 [E,G,]2 A,2 [D,D]2 | [E,C]4 [E,B,]4 |] [A,,A,]8 |] %14
V:4
 A,2 x6 | x8 | x8 | x8 | A,2 x6 | x8 | x8 | x8 | B,2 B,,2 x4 | x8 | x8 | x4 A,2 x2 | x8 |] x8 |] %14

